!!!COM: Stadler, Maximilian
!!!CDT: 1748///-1833///
!!!COA: Haydn, Joseph
!!!OTL@@IT: Gioco filarmonico
!!!OTL@EN: Philharmonic Joke
!!!OTA@@IT: o sia maniera facile per comporre un infinito numero de minuetti e trio anche senza sapere il contrapunto
!!!OTA@EN: or the Art of Composing an Infinite Number of Minutes Without the Least Knowledge of Counterpoint
!!!PDT: 1781///
!!!PPR: Artaria
!!!SML: Gesellschaft der Musikfreundes, Vienna
!!!PPR2: Luigi Marescalchi
!!!PPP2: Napoli
!!!PDT2: 1790///
**kern	**kern	**kern
*Icello	*Ivioln	*Ivioln
*>[A,A,B,B,A]	*>[A,A,B,B,A]	*>[A,A,B,B,A]
*>norep[A,B]	*>norep[A,B]	*>norep[A,B]
*>A	*>A	*>A
*k[]	*k[]	*k[]
*M3/4	*M3/4	*M3/4
*MM120	*MM120	*MM120
!!section:  I
!!measure:  A
!!diceroll: 8
=152	=152	=152
4r	4e	12gg
.	.	12ee
.	.	12cc
4E	4c	4g
4C	4e	4cc
!!section:  I
!!measure:  B
!!diceroll: 9
=84	=84	=84
4r	8.ee	8.gg
.	16ff	16aa
4G	8.dd	8.ff
.	16ee	16gg
4c	4cc	4ee
!!section:  I
!!measure:  C
!!diceroll: 9
=114	=114	=114
4E	4c	8gg
.	.	16ff
.	.	16gg
4F	4c	8aa
.	.	8a
4r	4r	8ff
.	.	8dd
!!section:  I
!!measure:  D
!!diceroll: 12
=103	=103	=103
4GG	8g	8b
.	8b	8dd
4AA	8f#	8a
.	8f#	8a
4BB	4g	4g
!!section:  I
!!measure:  E
!!diceroll: 7
=154	=154	=154
4C	2G	8r
.	.	8ee
4BB	.	16ff
.	.	16ee
.	.	8dd
4AA	4e	16ee
.	.	16dd
.	.	8cc
!!section:  I
!!measure:  F
!!diceroll: 7
=68	=68	=68
4r	4r	[4d
4C	4d	16d]
.	.	16e
.	.	16f#
.	.	16g
4BB	4d	16a
.	.	16b
.	.	16cc
.	.	16dd
!!section:  I
!!measure:  G
!!diceroll: 8
=21	=21	=21
4D	8a	8a
.	8cc	8ee
4E	8b	8dd
.	8a	8cc
4DD	8g	8b
.	8f#	8a
!!section:  I
!!measure:  H
!!diceroll: 11
=33	=33	=33
8r	2.g	2.g
8G	.	.
8D	.	.
8BB	.	.
4GG	.	.
*>B	*>B	*>B
!!section:  II
!!measure:  A
!!diceroll: 8
=16	=16	=16
4C#	12c#	2a
.	12e	.
.	12a	.
4C#	12c#	.
.	12e	.
.	12a	.
4C#	12c#	16aa
.	.	16gg
.	12e	.
.	.	16ff
.	12a	.
.	.	16ee
!!section:  II
!!measure:  B
!!diceroll: 4
=139	=139	=139
4r	4r	16ee
.	.	16dd
.	.	16cc#
.	.	16dd
4D	12f	2a
.	12a	.
.	12dd	.
4D	12f	.
.	12a	.
.	12dd	.
!!section:  II
!!measure:  C
!!diceroll: 8
=57	=57	=57
4B	4d	4f
4r	4r	16ff
.	.	16ee
.	.	16dd
.	.	16cc
4G	4d	4b
!!section:  II
!!measure:  D
!!diceroll: 9
=166	=166	=166
8E	8cc	8cc
8G	8g	8g
8F	8f	8f
8E	8e	8e
8D	8d	8d
8C	8c	8c
!!section:  II
!!measure:  E
!!diceroll: 5
=67	=67	=67
4C	2.cc	2.cc
4G	.	.
4c	.	.
!!section:  II
!!measure:  F
!!diceroll: 10
=38	=38	=38
4E	4cc	8gg
.	.	8ee
4D	4b	8ff
.	.	8dd
4C	4cc	8ee
.	.	8cc
!!section:  II
!!measure:  G
!!diceroll: 9
=72	=72	=72
4F	8b	8dd
.	8ff	8aa
4G	8ee	8gg
.	8dd	8ff
4GG	8cc	8ee
.	8b	8dd
!!section:  II
!!measure:  H
!!diceroll: 7
=151	=151	=151
4C	2.c	2.cc
8.GG	.	.
16EE	.	.
4CC	.	.
*-	*-	*-
!!!END: 2004/11/01/
